X: 1
T: Cloone, The
M: 4/4
L: 1/8
R: reel
K: Cmaj
|:e|dcAE ~G3A|GEcE ~G3e|dcAE ~G3A|GEcE EDDe|
dcAE ~G3A|GEcE ~G3A|c2ec gced|cAGE EDD:|
|:B|c2ec gcec|~g3a gede|c2ec gcea|gedc AGGB|
c2ec gcec|~g3a gedg|agec d2ed|cAGE EDD:|
